; generated by Slic3r Prusa Edition 1.41.2+ on 2021-08-21 at 20:34:41

; 

; external perimeters extrusion width = 0.45mm
; perimeters extrusion width = 0.45mm
; infill extrusion width = 0.45mm
; solid infill extrusion width = 0.45mm
; top infill extrusion width = 0.45mm
; first layer extrusion width = 0.42mm

M201 X9000 Y9000 Z500 E10000 ; sets maximum accelerations, mm/sec^2
M203 X500 Y500 Z12 E120 ; sets maximum feedrates, mm/sec
M204 P2000 R1500 T2000 ; sets acceleration (P, T) and retract acceleration (R), mm/sec^2
M205 X10.00 Y10.00 Z0.20 E2.50 ; sets the jerk limits, mm/sec
M205 S0 T0 ; sets the minimum extruding and travel feed rate, mm/sec
M107
M115 U3.2.3 ; tell printer latest fw version
M83  ; extruder relative mode
M204 S2000 T1500 ; MK2 firmware only supports the old M204 format
M104 S215 ; set extruder temp
M140 S60 ; set bed temp
M190 S60 ; wait for bed temp
M109 S215 ; wait for extruder temp
G28 W ; home all without mesh bed level
G80 ; mesh bed leveling
G1 Y-3.0 F1000.0 ; go outside print area
G92 E0.0
G1 X60.0 E9.0  F1000.0 ; intro line
G1 X100.0 E12.5  F1000.0 ; intro line
G92 E0.0
M900 K30; Filament gcode
G21 ; set units to millimeters
G90 ; use absolute coordinates
M83 ; use relative distances for extrusion
;BEFORE_LAYER_CHANGE
G92 E0.0
;0.2


G1 E-0.80000 F2100.00000
G1 Z0.600 F10800.000
;AFTER_LAYER_CHANGE
;0.2
G1 X47.310 Y64.954
G1 Z0.200
G1 E0.80000 F2100.00000
M204 S1000
G1 F1200
G1 X47.797 Y64.613 E0.01862
G1 X48.282 Y64.432 E0.01623
G1 X48.796 Y64.370 E0.01623
G1 X201.152 Y64.370 E4.77702
G1 X201.982 Y64.535 E0.02653
G1 X202.687 Y65.003 E0.02653
G1 X203.162 Y65.703 E0.02653
G1 X203.337 Y66.531 E0.02653
G1 X203.336 Y142.742 E2.38954
G1 X203.249 Y143.322 E0.01839
G1 X203.009 Y143.861 E0.01851
G1 X202.633 Y144.317 E0.01851
G1 X202.150 Y144.655 E0.01851
G1 X201.664 Y144.836 E0.01623
G1 X201.150 Y144.898 E0.01623
G1 X48.787 Y144.897 E4.77724
G1 X48.199 Y144.814 E0.01862
G1 X47.652 Y144.573 E0.01873
G1 X47.193 Y144.197 E0.01862
G1 X46.852 Y143.710 E0.01862
G1 X46.672 Y143.229 E0.01612
G1 X46.610 Y142.715 E0.01623
G1 X46.610 Y66.533 E2.38862
G1 X46.696 Y65.949 E0.01851
G1 X46.935 Y65.410 E0.01851
G1 X47.272 Y65.000 E0.01663
; PURGING FINISHED
G1 F8640
G1 X47.797 Y64.613 E-0.15053
G1 X48.282 Y64.432 E-0.11955
G1 X48.796 Y64.370 E-0.11955
G1 X50.400 Y64.370 E-0.37036
G1 E-0.04000 F2100.00000
G1 Z0.800 F10800.000
G1 X49.385 Y67.146
G1 Z0.200
G1 E0.80000 F2100.00000
G1 F1200
G1 X200.561 Y67.146 E4.74002
G1 X200.561 Y142.122 E2.35082
G1 X49.385 Y142.122 E4.74002
G1 X49.385 Y67.206 E2.34894
G1 X49.008 Y66.769 F10800.000
G1 F1200
G1 X200.938 Y66.769 E4.76366
G1 X200.938 Y142.499 E2.37447
G1 X49.008 Y142.499 E4.76366
G1 X49.008 Y66.829 E2.37258
G1 X49.403 Y66.830 F10800.000
G1 F8640
G1 X52.299 Y66.828 E-0.76000
G1 E-0.04000 F2100.00000
G1 Z0.800 F10800.000
G1 X49.498 Y141.246
G1 Z0.200
G1 E0.80000 F2100.00000
G1 F1200
G1 X50.091 Y141.839 E0.02633
G1 X50.625 Y141.839 E0.01675
G1 X49.668 Y140.882 E0.04248
G1 X49.668 Y140.348 E0.01675
G1 X51.159 Y141.839 E0.06617
G1 X51.693 Y141.839 E0.01675
G1 X49.668 Y139.814 E0.08986
G1 X49.668 Y139.281 E0.01675
G1 X52.226 Y141.839 E0.11355
G1 X52.760 Y141.839 E0.01675
G1 X49.668 Y138.747 E0.13724
G1 X49.668 Y138.213 E0.01675
G1 X53.294 Y141.839 E0.16093
G1 X53.828 Y141.839 E0.01675
G1 X49.668 Y137.679 E0.18461
G1 X49.668 Y137.146 E0.01675
G1 X54.361 Y141.839 E0.20830
G1 X54.895 Y141.839 E0.01675
G1 X49.668 Y136.612 E0.23199
G1 X49.668 Y136.078 E0.01675
G1 X55.429 Y141.839 E0.25568
G1 X55.963 Y141.839 E0.01675
G1 X49.668 Y135.544 E0.27937
G1 X49.668 Y135.011 E0.01675
G1 X56.496 Y141.839 E0.30306
G1 X57.030 Y141.839 E0.01675
G1 X49.668 Y134.477 E0.32675
G1 X49.668 Y133.943 E0.01675
G1 X57.564 Y141.839 E0.35043
G1 X58.098 Y141.839 E0.01675
G1 X49.668 Y133.409 E0.37412
G1 X49.668 Y132.876 E0.01675
G1 X58.631 Y141.839 E0.39781
G1 X59.165 Y141.839 E0.01675
G1 X49.668 Y132.342 E0.42150
G1 X49.668 Y131.808 E0.01675
G1 X59.699 Y141.839 E0.44519
G1 X60.233 Y141.839 E0.01675
G1 X49.668 Y131.274 E0.46888
G1 X49.668 Y130.741 E0.01675
G1 X60.766 Y141.839 E0.49256
G1 X61.300 Y141.839 E0.01675
G1 X49.668 Y130.207 E0.51625
G1 X49.668 Y129.673 E0.01675
G1 X61.834 Y141.839 E0.53994
G1 X62.368 Y141.839 E0.01675
G1 X49.668 Y129.139 E0.56363
G1 X49.668 Y128.606 E0.01675
G1 X62.901 Y141.839 E0.58732
G1 X63.435 Y141.839 E0.01675
G1 X49.668 Y128.072 E0.61101
G1 X49.668 Y127.538 E0.01675
G1 X63.969 Y141.839 E0.63469
G1 X64.503 Y141.839 E0.01675
G1 X49.668 Y127.004 E0.65838
G1 X49.668 Y126.471 E0.01675
G1 X65.036 Y141.839 E0.68207
G1 X65.570 Y141.839 E0.01675
G1 X49.668 Y125.937 E0.70576
G1 X49.668 Y125.403 E0.01675
G1 X66.104 Y141.839 E0.72945
G1 X66.638 Y141.839 E0.01675
G1 X49.668 Y124.869 E0.75314
G1 X49.668 Y124.336 E0.01675
G1 X67.171 Y141.839 E0.77682
G1 X67.705 Y141.839 E0.01675
G1 X49.668 Y123.802 E0.80051
G1 X49.668 Y123.268 E0.01675
G1 X68.239 Y141.839 E0.82420
G1 X68.773 Y141.839 E0.01675
G1 X49.668 Y122.734 E0.84789
G1 X49.668 Y122.201 E0.01675
G1 X69.306 Y141.839 E0.87158
G1 X69.840 Y141.839 E0.01675
G1 X49.668 Y121.667 E0.89527
G1 X49.668 Y121.133 E0.01675
G1 X70.374 Y141.839 E0.91895
G1 X70.908 Y141.839 E0.01675
G1 X49.668 Y120.599 E0.94264
G1 X49.668 Y120.066 E0.01675
G1 X71.441 Y141.839 E0.96633
G1 X71.975 Y141.839 E0.01675
G1 X49.668 Y119.532 E0.99002
G1 X49.668 Y118.998 E0.01675
G1 X72.509 Y141.839 E1.01371
G1 X73.043 Y141.839 E0.01675
G1 X49.668 Y118.464 E1.03740
G1 X49.668 Y117.931 E0.01675
G1 X73.576 Y141.839 E1.06108
G1 X74.110 Y141.839 E0.01675
G1 X49.668 Y117.397 E1.08477
G1 X49.668 Y116.863 E0.01675
G1 X74.644 Y141.839 E1.10846
G1 X75.178 Y141.839 E0.01675
G1 X49.668 Y116.329 E1.13215
G1 X49.668 Y115.796 E0.01675
G1 X75.711 Y141.839 E1.15584
G1 X76.245 Y141.839 E0.01675
G1 X49.668 Y115.262 E1.17953
G1 X49.668 Y114.728 E0.01675
G1 X76.779 Y141.839 E1.20321
G1 X77.313 Y141.839 E0.01675
G1 X49.668 Y114.194 E1.22690
G1 X49.668 Y113.661 E0.01675
G1 X77.846 Y141.839 E1.25059
G1 X78.380 Y141.839 E0.01675
G1 X49.668 Y113.127 E1.27428
G1 X49.668 Y112.593 E0.01675
G1 X78.914 Y141.839 E1.29797
G1 X79.448 Y141.839 E0.01675
G1 X49.668 Y112.060 E1.32166
G1 X49.668 Y111.526 E0.01675
G1 X79.981 Y141.839 E1.34534
G1 X80.515 Y141.839 E0.01675
G1 X49.668 Y110.992 E1.36903
G1 X49.668 Y110.458 E0.01675
G1 X81.049 Y141.839 E1.39272
G1 X81.583 Y141.839 E0.01675
G1 X49.668 Y109.925 E1.41641
G1 X49.668 Y109.391 E0.01675
G1 X82.116 Y141.839 E1.44010
G1 X82.650 Y141.839 E0.01675
G1 X49.668 Y108.857 E1.46379
G1 X49.668 Y108.323 E0.01675
G1 X83.184 Y141.839 E1.48747
G1 X83.717 Y141.839 E0.01675
G1 X49.668 Y107.790 E1.51116
G1 X49.668 Y107.256 E0.01675
G1 X84.251 Y141.839 E1.53485
G1 X84.785 Y141.839 E0.01675
G1 X49.668 Y106.722 E1.55854
G1 X49.668 Y106.188 E0.01675
G1 X85.319 Y141.839 E1.58223
G1 X85.852 Y141.839 E0.01675
G1 X49.668 Y105.655 E1.60592
G1 X49.668 Y105.121 E0.01675
G1 X86.386 Y141.839 E1.62960
G1 X86.920 Y141.839 E0.01675
G1 X49.668 Y104.587 E1.65329
G1 X49.668 Y104.053 E0.01675
G1 X87.454 Y141.839 E1.67698
G1 X87.987 Y141.839 E0.01675
G1 X49.668 Y103.520 E1.70067
G1 X49.668 Y102.986 E0.01675
G1 X88.521 Y141.839 E1.72436
G1 X89.055 Y141.839 E0.01675
G1 X49.668 Y102.452 E1.74805
G1 X49.668 Y101.918 E0.01675
G1 X89.589 Y141.839 E1.77173
G1 X90.122 Y141.839 E0.01675
G1 X49.668 Y101.385 E1.79542
G1 X49.668 Y100.851 E0.01675
G1 X90.656 Y141.839 E1.81911
G1 X91.190 Y141.839 E0.01675
G1 X49.668 Y100.317 E1.84280
G1 X49.668 Y99.783 E0.01675
G1 X91.724 Y141.839 E1.86649
G1 X92.257 Y141.839 E0.01675
G1 X49.668 Y99.250 E1.89018
G1 X49.668 Y98.716 E0.01675
G1 X92.791 Y141.839 E1.91386
G1 X93.325 Y141.839 E0.01675
G1 X49.668 Y98.182 E1.93755
G1 X49.668 Y97.648 E0.01675
G1 X93.859 Y141.839 E1.96124
G1 X94.392 Y141.839 E0.01675
G1 X49.668 Y97.115 E1.98493
G1 X49.668 Y96.581 E0.01675
G1 X94.926 Y141.839 E2.00862
G1 X95.460 Y141.839 E0.01675
G1 X49.668 Y96.047 E2.03231
G1 X49.668 Y95.513 E0.01675
G1 X95.994 Y141.839 E2.05599
G1 X96.527 Y141.839 E0.01675
G1 X49.668 Y94.980 E2.07968
G1 X49.668 Y94.446 E0.01675
G1 X97.061 Y141.839 E2.10337
G1 X97.595 Y141.839 E0.01675
G1 X49.668 Y93.912 E2.12706
G1 X49.668 Y93.378 E0.01675
G1 X98.129 Y141.839 E2.15075
G1 X98.662 Y141.839 E0.01675
G1 X49.668 Y92.845 E2.17444
G1 X49.668 Y92.311 E0.01675
G1 X99.196 Y141.839 E2.19812
G1 X99.730 Y141.839 E0.01675
G1 X49.668 Y91.777 E2.22181
G1 X49.668 Y91.243 E0.01675
G1 X100.264 Y141.839 E2.24550
G1 X100.797 Y141.839 E0.01675
G1 X49.668 Y90.710 E2.26919
G1 X49.668 Y90.176 E0.01675
G1 X101.331 Y141.839 E2.29288
G1 X101.865 Y141.839 E0.01675
G1 X49.668 Y89.642 E2.31657
G1 X49.668 Y89.108 E0.01675
G1 X102.399 Y141.839 E2.34025
G1 X102.932 Y141.839 E0.01675
G1 X49.668 Y88.575 E2.36394
G1 X49.668 Y88.041 E0.01675
G1 X103.466 Y141.839 E2.38763
G1 X104.000 Y141.839 E0.01675
G1 X49.668 Y87.507 E2.41132
G1 X49.668 Y86.973 E0.01675
G1 X104.534 Y141.839 E2.43501
G1 X105.067 Y141.839 E0.01675
G1 X49.668 Y86.440 E2.45870
G1 X49.668 Y85.906 E0.01675
G1 X105.601 Y141.839 E2.48238
G1 X106.135 Y141.839 E0.01675
G1 X49.668 Y85.372 E2.50607
G1 X49.668 Y84.838 E0.01675
G1 X106.669 Y141.839 E2.52976
G1 X107.202 Y141.839 E0.01675
G1 X49.668 Y84.305 E2.55345
G1 X49.668 Y83.771 E0.01675
G1 X107.736 Y141.839 E2.57714
G1 X108.270 Y141.839 E0.01675
G1 X49.668 Y83.237 E2.60083
G1 X49.668 Y82.703 E0.01675
G1 X108.804 Y141.839 E2.62451
G1 X109.337 Y141.839 E0.01675
G1 X49.668 Y82.170 E2.64820
G1 X49.668 Y81.636 E0.01675
G1 X109.871 Y141.839 E2.67189
G1 X110.405 Y141.839 E0.01675
G1 X49.668 Y81.102 E2.69558
G1 X49.668 Y80.568 E0.01675
G1 X110.939 Y141.839 E2.71927
G1 X111.472 Y141.839 E0.01675
G1 X49.668 Y80.035 E2.74296
G1 X49.668 Y79.501 E0.01675
G1 X112.006 Y141.839 E2.76664
G1 X112.540 Y141.839 E0.01675
G1 X49.668 Y78.967 E2.79033
G1 X49.668 Y78.433 E0.01675
G1 X113.074 Y141.839 E2.81402
G1 X113.607 Y141.839 E0.01675
G1 X49.668 Y77.900 E2.83771
G1 X49.668 Y77.366 E0.01675
G1 X114.141 Y141.839 E2.86140
G1 X114.675 Y141.839 E0.01675
G1 X49.668 Y76.832 E2.88509
G1 X49.668 Y76.298 E0.01675
G1 X115.209 Y141.839 E2.90877
G1 X115.742 Y141.839 E0.01675
G1 X49.668 Y75.765 E2.93246
G1 X49.668 Y75.231 E0.01675
G1 X116.276 Y141.839 E2.95615
G1 X116.810 Y141.839 E0.01675
G1 X49.668 Y74.697 E2.97984
G1 X49.668 Y74.163 E0.01675
G1 X117.344 Y141.839 E3.00353
G1 X117.877 Y141.839 E0.01675
G1 X49.668 Y73.630 E3.02722
G1 X49.668 Y73.096 E0.01675
G1 X118.411 Y141.839 E3.05090
G1 X118.945 Y141.839 E0.01675
G1 X49.668 Y72.562 E3.07459
G1 X49.668 Y72.028 E0.01675
G1 X119.479 Y141.839 E3.09828
G1 X120.012 Y141.839 E0.01675
G1 X49.668 Y71.495 E3.12197
G1 X49.668 Y70.961 E0.01675
G1 X120.546 Y141.839 E3.14566
G1 X121.080 Y141.839 E0.01675
G1 X49.668 Y70.427 E3.16935
G1 X49.668 Y69.894 E0.01675
G1 X121.614 Y141.839 E3.19303
G1 X122.147 Y141.839 E0.01675
G1 X49.668 Y69.360 E3.21672
G1 X49.668 Y68.826 E0.01675
G1 X122.681 Y141.839 E3.24041
G1 X123.215 Y141.839 E0.01675
G1 X49.668 Y68.292 E3.26410
G1 X49.668 Y67.759 E0.01675
G1 X123.749 Y141.839 E3.28779
G1 X124.282 Y141.839 E0.01675
G1 X49.872 Y67.429 E3.30243
G1 X50.406 Y67.429 E0.01675
G1 X124.816 Y141.839 E3.30243
G1 X125.350 Y141.839 E0.01675
G1 X50.939 Y67.429 E3.30243
G1 X51.473 Y67.429 E0.01675
G1 X125.883 Y141.839 E3.30243
G1 X126.417 Y141.839 E0.01675
G1 X52.007 Y67.429 E3.30243
G1 X52.541 Y67.429 E0.01675
G1 X126.951 Y141.839 E3.30243
G1 X127.485 Y141.839 E0.01675
G1 X53.074 Y67.429 E3.30243
G1 X53.608 Y67.429 E0.01675
G1 X128.018 Y141.839 E3.30243
G1 X128.552 Y141.839 E0.01675
G1 X54.142 Y67.429 E3.30243
G1 X54.676 Y67.429 E0.01675
G1 X129.086 Y141.839 E3.30243
G1 X129.620 Y141.839 E0.01675
G1 X55.209 Y67.429 E3.30243
G1 X55.743 Y67.429 E0.01675
G1 X130.153 Y141.839 E3.30243
G1 X130.687 Y141.839 E0.01675
G1 X56.277 Y67.429 E3.30243
G1 X56.811 Y67.429 E0.01675
G1 X131.221 Y141.839 E3.30243
G1 X131.755 Y141.839 E0.01675
G1 X57.344 Y67.429 E3.30243
G1 X57.878 Y67.429 E0.01675
G1 X132.288 Y141.839 E3.30243
G1 X132.822 Y141.839 E0.01675
G1 X58.412 Y67.429 E3.30243
G1 X58.946 Y67.429 E0.01675
G1 X133.356 Y141.839 E3.30243
G1 X133.890 Y141.839 E0.01675
G1 X59.479 Y67.429 E3.30243
G1 X60.013 Y67.429 E0.01675
G1 X134.423 Y141.839 E3.30243
G1 X134.957 Y141.839 E0.01675
G1 X60.547 Y67.429 E3.30243
G1 X61.081 Y67.429 E0.01675
G1 X135.491 Y141.839 E3.30243
G1 X136.025 Y141.839 E0.01675
G1 X61.614 Y67.429 E3.30243
G1 X62.148 Y67.429 E0.01675
G1 X136.558 Y141.839 E3.30243
G1 X137.092 Y141.839 E0.01675
G1 X62.682 Y67.429 E3.30243
G1 X63.216 Y67.429 E0.01675
G1 X137.626 Y141.839 E3.30243
G1 X138.160 Y141.839 E0.01675
G1 X63.749 Y67.429 E3.30243
G1 X64.283 Y67.429 E0.01675
G1 X138.693 Y141.839 E3.30243
G1 X139.227 Y141.839 E0.01675
G1 X64.817 Y67.429 E3.30243
G1 X65.351 Y67.429 E0.01675
G1 X139.761 Y141.839 E3.30243
G1 X140.295 Y141.839 E0.01675
G1 X65.884 Y67.429 E3.30243
G1 X66.418 Y67.429 E0.01675
G1 X140.828 Y141.839 E3.30243
G1 X141.362 Y141.839 E0.01675
G1 X66.952 Y67.429 E3.30243
G1 X67.485 Y67.429 E0.01675
G1 X141.896 Y141.839 E3.30243
G1 X142.430 Y141.839 E0.01675
G1 X68.019 Y67.429 E3.30243
G1 X68.553 Y67.429 E0.01675
G1 X142.963 Y141.839 E3.30243
G1 X143.497 Y141.839 E0.01675
G1 X69.087 Y67.429 E3.30243
G1 X69.620 Y67.429 E0.01675
G1 X144.031 Y141.839 E3.30243
G1 X144.565 Y141.839 E0.01675
G1 X70.154 Y67.429 E3.30243
G1 X70.688 Y67.429 E0.01675
G1 X145.098 Y141.839 E3.30243
G1 X145.632 Y141.839 E0.01675
G1 X71.222 Y67.429 E3.30243
G1 X71.755 Y67.429 E0.01675
G1 X146.166 Y141.839 E3.30243
G1 X146.700 Y141.839 E0.01675
G1 X72.289 Y67.429 E3.30243
G1 X72.823 Y67.429 E0.01675
G1 X147.233 Y141.839 E3.30243
G1 X147.767 Y141.839 E0.01675
G1 X73.357 Y67.429 E3.30243
G1 X73.890 Y67.429 E0.01675
G1 X148.301 Y141.839 E3.30243
G1 X148.835 Y141.839 E0.01675
G1 X74.424 Y67.429 E3.30243
G1 X74.958 Y67.429 E0.01675
G1 X149.368 Y141.839 E3.30243
G1 X149.902 Y141.839 E0.01675
G1 X75.492 Y67.429 E3.30243
G1 X76.025 Y67.429 E0.01675
G1 X150.436 Y141.839 E3.30243
G1 X150.970 Y141.839 E0.01675
G1 X76.559 Y67.429 E3.30243
G1 X77.093 Y67.429 E0.01675
G1 X151.503 Y141.839 E3.30243
G1 X152.037 Y141.839 E0.01675
G1 X77.627 Y67.429 E3.30243
G1 X78.160 Y67.429 E0.01675
G1 X152.571 Y141.839 E3.30243
G1 X153.105 Y141.839 E0.01675
G1 X78.694 Y67.429 E3.30243
G1 X79.228 Y67.429 E0.01675
G1 X153.638 Y141.839 E3.30243
G1 X154.172 Y141.839 E0.01675
G1 X79.762 Y67.429 E3.30243
G1 X80.295 Y67.429 E0.01675
G1 X154.706 Y141.839 E3.30243
G1 X155.240 Y141.839 E0.01675
G1 X80.829 Y67.429 E3.30243
G1 X81.363 Y67.429 E0.01675
G1 X155.773 Y141.839 E3.30243
G1 X156.307 Y141.839 E0.01675
G1 X81.897 Y67.429 E3.30243
G1 X82.430 Y67.429 E0.01675
G1 X156.841 Y141.839 E3.30243
G1 X157.375 Y141.839 E0.01675
G1 X82.964 Y67.429 E3.30243
G1 X83.498 Y67.429 E0.01675
G1 X157.908 Y141.839 E3.30243
G1 X158.442 Y141.839 E0.01675
G1 X84.032 Y67.429 E3.30243
G1 X84.565 Y67.429 E0.01675
G1 X158.976 Y141.839 E3.30243
G1 X159.510 Y141.839 E0.01675
G1 X85.099 Y67.429 E3.30243
G1 X85.633 Y67.429 E0.01675
G1 X160.043 Y141.839 E3.30243
G1 X160.577 Y141.839 E0.01675
G1 X86.167 Y67.429 E3.30243
G1 X86.700 Y67.429 E0.01675
G1 X161.111 Y141.839 E3.30243
G1 X161.645 Y141.839 E0.01675
G1 X87.234 Y67.429 E3.30243
G1 X87.768 Y67.429 E0.01675
G1 X162.178 Y141.839 E3.30243
G1 X162.712 Y141.839 E0.01675
G1 X88.302 Y67.429 E3.30243
G1 X88.835 Y67.429 E0.01675
G1 X163.246 Y141.839 E3.30243
G1 X163.780 Y141.839 E0.01675
G1 X89.369 Y67.429 E3.30243
G1 X89.903 Y67.429 E0.01675
G1 X164.313 Y141.839 E3.30243
G1 X164.847 Y141.839 E0.01675
G1 X90.437 Y67.429 E3.30243
G1 X90.970 Y67.429 E0.01675
G1 X165.381 Y141.839 E3.30243
G1 X165.915 Y141.839 E0.01675
G1 X91.504 Y67.429 E3.30243
G1 X92.038 Y67.429 E0.01675
G1 X166.448 Y141.839 E3.30243
G1 X166.982 Y141.839 E0.01675
G1 X92.572 Y67.429 E3.30243
G1 X93.105 Y67.429 E0.01675
G1 X167.516 Y141.839 E3.30243
G1 X168.049 Y141.839 E0.01675
G1 X93.639 Y67.429 E3.30243
G1 X94.173 Y67.429 E0.01675
G1 X168.583 Y141.839 E3.30243
G1 X169.117 Y141.839 E0.01675
G1 X94.707 Y67.429 E3.30243
G1 X95.240 Y67.429 E0.01675
G1 X169.651 Y141.839 E3.30243
G1 X170.184 Y141.839 E0.01675
G1 X95.774 Y67.429 E3.30243
G1 X96.308 Y67.429 E0.01675
